src/static/logos/sherlock.svg

<?xml version="1.0" encoding="UTF-8" standalone="no"?>
<svg width="256px" height="256px" viewBox="0 0 256 256" version="1.1" xmlns="http://www.w3.org/2000/svg" xmlns:xlink="http://www.w3.org/1999/xlink" preserveAspectRatio="xMidYMid">
	<g>
		<circle fill="#373E4D" cx="128" cy="128" r="128"></circle>
		<path d="M159.581198,131.861093 C142.601438,131.861093 128.836424,118.096079 128.836424,101.116318 C128.836424,84.1365581 142.601438,70.3715443 159.581198,70.3715443 C176.560959,70.3715443 190.325972,84.1365581 190.325972,101.116318 C190.325972,118.096079 176.560959,131.861093 159.581198,131.861093 L159.581198,131.861093 Z M190.116571,173.481148 C188.874323,174.349424 186.760258,175.037793 183.432258,175.083802 C159.869051,143.704337 145.146691,140.515544 130.04623,154.509424 C128.758562,155.702715 126.799631,155.730438 125.486009,154.564871 C110.660424,141.406825 93.65353,143.622936 72.576,174.526973 C70.199447,175.744447 68.4109862,175.173461 67.1380645,174.108761 L67.1380645,100.411434 C67.1380645,95.8860143 68.2747281,91.3877286 70.7002396,87.567194 C80.4960737,72.1381802 105.333382,67.1910097 117.124129,88.9858115 C106.66706,137.299028 159.162986,159.886604 190.116571,132.070494 L190.116571,173.481148 Z M125.280737,74.1366318 C108.131097,48.6203922 60.6543041,54.8947516 52.4976959,96.3059959 L52.4976959,176.786143 C52.4976959,177.758825 52.8362765,178.712632 53.4609401,179.458217 C75.6639263,205.960706 97.8669124,206.200779 122.559705,180.38607 C124.980498,177.854973 129.031668,178.063784 131.220055,180.798383 C147.255447,200.835397 180.994949,212.765941 202.06953,177.064558 C203.000332,175.487858 203.502304,173.68642 203.502304,171.854899 L203.502304,96.2358023 C203.502304,95.1716917 203.379023,94.1040419 203.09471,93.0782724 C192.696627,55.5400604 149.422009,48.75783 125.280737,74.1366318 L125.280737,74.1366318 Z M102.440641,104.022803 C102.440641,109.439504 98.0491207,113.831024 92.6324203,113.831024 C87.21513,113.831024 82.8241991,109.439504 82.8241991,104.022803 C82.8241991,98.6061028 87.21513,94.214582 92.6324203,94.214582 C98.0491207,94.214582 102.440641,98.6061028 102.440641,104.022803" fill="#FFFFFF"></path>
	</g>
</svg>

<svg width="256" height="256" xmlns="http://www.w3.org/2000/svg" preserveAspectRatio="xMidYMid"><circle fill="#373E4D" cx="128" cy="128" r="128"/><path d="M159.581 131.861c-16.98 0-30.745-13.765-30.745-30.745s13.765-30.744 30.745-30.744 30.745 13.765 30.745 30.744c0 16.98-13.765 30.745-30.745 30.745zm30.536 41.62c-1.243.868-3.357 1.557-6.685 1.603-23.563-31.38-38.285-34.568-53.386-20.575a3.381 3.381 0 01-4.56.056c-14.826-13.158-31.832-10.942-52.91 19.962-2.377 1.217-4.165.646-5.438-.418V100.41c0-4.525 1.137-9.023 3.562-12.844 9.796-15.429 34.633-20.376 46.424 1.419-10.457 48.313 42.039 70.9 72.993 43.084v41.411zM125.28 74.137C108.13 48.62 60.654 54.895 52.498 96.306v80.48c0 .973.338 1.927.963 2.672 22.203 26.503 44.406 26.743 69.099.928 2.42-2.531 6.472-2.322 8.66.412 16.035 20.037 49.775 31.968 70.85-3.733a10.264 10.264 0 001.432-5.21v-75.62c0-1.063-.123-2.131-.407-3.157-10.398-37.538-53.673-44.32-77.814-18.941zm-22.84 29.886c0 5.417-4.392 9.808-9.809 9.808-5.417 0-9.808-4.391-9.808-9.808s4.391-9.808 9.808-9.808 9.809 4.391 9.809 9.808" fill="#FFF"/></svg>
